img/f1460_1.svg

<svg enable-background="new 0 0 800 798.7" viewBox="0 0 800 798.7" xmlns="http://www.w3.org/2000/svg"><path d="m496.5 15.7c-4 .2-22.3 22.2-21.3 39.5.8 13 11.9 22.9 24.9 22.2 13-.8 22.9-11.9 22.2-24.9-1.1-17.3-21.8-37-25.8-36.8z" fill="#1f9aff"/><path d="m481.6 63.8c9.3 5.1 30.9-1.2 36.3-15 3.4 18.9-10.5 23.4-17.7 24.1-13 1.3-18.6-9.1-18.6-9.1z" fill="#1790e2"/><path d="m492.2 23.4c-3.2 2.9-7.3 8.4-9.8 15-.6 1.5 1.6 2 2.9.6 4.4-4.6 7.4-9.4 9.2-14.3.3-1.1-1-2.4-2.3-1.3z" fill="#3fafff"/><path d="m645.6 101.7c-4.5-.6-29.5 20.4-31.9 39.9-1.8 14.7 8.7 28.1 23.4 29.9s28.1-8.7 29.9-23.4c2.3-19.5-16.9-45.8-21.4-46.4z" fill="#1f9aff"/><path d="m619.1 152.6c9.4 7.6 34.9 4.9 43.7-9.5-.1 21.9-16.5 24.1-24.8 23.4-14.7-1.1-18.9-13.9-18.9-13.9z" fill="#1790e2"/><path d="m639.2 109.5c-4.2 2.6-9.9 7.9-14.1 14.8-.9 1.5 1.3 2.5 3.1 1.3 5.9-4.2 10.2-9.1 13.2-14.1.7-1.2-.5-3.1-2.2-2z" fill="#3fafff"/><path d="m747.4 225.1c-3.8-.4-24.7 17.6-26.5 34.2-1.3 12.5 7.7 23.7 20.2 25s23.7-7.7 25-20.2c1.8-16.5-14.8-38.6-18.7-39z" fill="#1f9aff"/><path d="m725.6 268.5c8 6.3 29.6 3.7 36.9-8.6.2 18.6-13.7 20.6-20.7 20.1-12.4-.7-16.2-11.5-16.2-11.5z" fill="#1790e2"/><path d="m742.1 231.8c-3.5 2.2-8.3 6.8-11.7 12.7-.8 1.3 1.2 2.1 2.6 1.1 4.9-3.6 8.6-7.8 11-12.1.6-1.1-.5-2.6-1.9-1.7z" fill="#3fafff"/><path d="m769 370.4c-4.7 0-27.6 24.1-27.8 44.3-.1 15.1 12 27.5 27.2 27.7 15.1.1 27.5-12 27.7-27.2.1-20.2-22.5-44.7-27.1-44.8z" fill="#1f9aff"/><path d="m747.9 425.1c10.4 6.6 36 1 43.3-14.7 2.4 22.3-14 26.3-22.5 26.6-15 .6-20.8-11.9-20.8-11.9z" fill="#1790e2"/><path d="m763.4 379c-3.9 3.1-9.2 9.2-12.6 16.7-.8 1.7 1.7 2.4 3.3 1 5.5-5 9.4-10.4 11.8-15.9.5-1.3-.9-3-2.5-1.8z" fill="#3fafff"/><path d="m737.3 524.1c-4.7-.1-27.9 23.7-28.4 43.9-.3 15.1 11.7 27.7 26.8 28s27.7-11.7 28-26.8c.5-20.2-21.8-45-26.4-45.1z" fill="#1f9aff"/><path d="m715.5 578.6c10.3 6.8 36 1.4 43.5-14.1 2.1 22.3-14.3 26.1-22.8 26.3-15 .3-20.7-12.2-20.7-12.2z" fill="#1790e2"/><path d="m731.6 532.7c-4 3-9.3 9.1-12.8 16.5-.8 1.7 1.6 2.5 3.3 1 5.5-4.9 9.5-10.2 12-15.7.5-1.3-.9-3-2.5-1.8z" fill="#3fafff"/><path d="m637.7 669.7c-3.4.3-18.1 19.4-16.8 33.9 1 10.9 10.7 18.9 21.6 17.9s18.9-10.7 17.9-21.6c-1.3-14.5-19.4-30.5-22.7-30.2z" fill="#1f9aff"/><path d="m626.5 710.6c8 4 26-1.9 30.1-13.7 3.4 15.9-8.1 20-14.2 20.8-10.8 1.5-15.9-7.1-15.9-7.1z" fill="#1790e2"/><path d="m634.3 676.3c-2.6 2.5-5.9 7.3-7.8 12.9-.4 1.3 1.4 1.6 2.4.5 3.6-4 6-8.2 7.3-12.3.3-1-.9-2.1-1.9-1.1z" fill="#3fafff"/><path d="m484.4 722.3c-4.7.1-27.2 24.9-26.9 45.3.2 15.3 12.8 27.4 28.1 27.2s27.4-12.8 27.2-28.1c-.4-20.3-23.7-44.5-28.4-44.4z" fill="#1f9aff"/><path d="m464.5 777.9c10.6 6.4 36.3.1 43.3-15.8 3 22.4-13.4 26.9-22 27.4-15.2.9-21.3-11.6-21.3-11.6z" fill="#1790e2"/><path d="m478.9 731.1c-3.9 3.2-9 9.5-12.3 17.1-.7 1.7 1.7 2.4 3.3.9 5.4-5.1 9.2-10.7 11.5-16.3.6-1.3-.9-3-2.5-1.7z" fill="#3fafff"/><path d="m303.7 722.6c-3.6.2-20.2 19.9-19.4 35.5.6 11.7 10.6 20.7 22.3 20.1s20.7-10.6 20.1-22.3c-.8-15.6-19.4-33.5-23-33.3z" fill="#1f9aff"/><path d="m290.1 765.8c8.3 4.6 27.8-.9 32.7-13.4 2.9 17.1-9.5 21-16.1 21.6-11.6 1.2-16.6-8.2-16.6-8.2z" fill="#1790e2"/><path d="m299.8 729.5c-2.9 2.6-6.6 7.5-8.9 13.5-.5 1.3 1.4 1.8 2.6.6 4-4.1 6.7-8.4 8.3-12.8.4-1.1-.8-2.3-2-1.3z" fill="#3fafff"/><path d="m152.1 638.5c-3.8.3-20.8 21.8-19.5 38.3 1 12.4 11.9 21.7 24.4 20.6 12.4-1 21.7-11.9 20.6-24.3-1.3-16.5-21.6-34.9-25.5-34.6z" fill="#1f9aff"/><path d="m139 684.9c9 4.7 29.6-1.9 34.4-15.3 3.7 18.1-9.5 22.6-16.4 23.5-12.3 1.6-18-8.2-18-8.2z" fill="#1790e2"/><path d="m148.2 646c-3 2.8-6.8 8.2-9.1 14.6-.5 1.4 1.5 1.9 2.8.6 4.1-4.5 6.9-9.2 8.5-13.9.3-1.1-1-2.4-2.2-1.3z" fill="#3fafff"/><path d="m49.2 498.5c-4.7-.2-28.3 23.5-28.9 43.7-.5 15.2 11.4 27.9 26.6 28.4s27.9-11.4 28.4-26.6c.6-20.2-21.4-45.3-26.1-45.5z" fill="#1f9aff"/><path d="m26.8 552.9c10.3 6.9 36.1 1.8 43.8-13.7 1.9 22.4-14.6 26.1-23.2 26.2-15.1.2-20.6-12.5-20.6-12.5z" fill="#1790e2"/><path d="m43.4 507c-4 3-9.4 9-13 16.4-.8 1.7 1.6 2.5 3.3 1.1 5.6-4.8 9.6-10.2 12.2-15.7.5-1.2-.9-3-2.5-1.8z" fill="#3fafff"/><path d="m23.7 331.3c-3.6.2-20.4 19.9-19.7 35.6.5 11.8 10.5 20.9 22.3 20.3 11.8-.5 20.8-10.5 20.3-22.3-.7-15.7-19.3-33.7-22.9-33.6z" fill="#1f9aff"/><path d="m9.7 374.7c8.4 4.7 28-.8 33-13.3 2.8 17.2-9.7 21-16.3 21.6-11.7 1.2-16.7-8.3-16.7-8.3z" fill="#1790e2"/><path d="m19.7 338.3c-2.9 2.6-6.7 7.5-9.1 13.5-.5 1.3 1.4 1.8 2.6.6 4.1-4.1 6.8-8.5 8.5-12.8.4-1.1-.8-2.4-2-1.3z" fill="#3fafff"/><path d="m81.2 164.5c-4.4.5-23.5 26-21.4 45.1 1.6 14.4 14.5 24.8 28.9 23.2s24.8-14.5 23.2-28.9c-2.1-19.2-26.3-39.9-30.7-39.4z" fill="#1f9aff"/><path d="m67.4 218.8c10.6 5.1 34.3-3.1 39.5-18.8 4.8 20.9-10.3 26.6-18.3 27.8-14.3 2.2-21.2-9-21.2-9z" fill="#1790e2"/><path d="m76.8 173.3c-3.4 3.4-7.6 9.8-10.1 17.3-.5 1.7 1.8 2.1 3.2.6 4.6-5.3 7.7-10.9 9.4-16.4.5-1.4-1.1-2.8-2.5-1.5z" fill="#3fafff"/><path d="m196.3 55.8c-3.9.1-22.6 21.2-22.1 38.3.4 12.8 11.1 22.9 23.9 22.5s22.9-11.1 22.5-23.9c-.5-17.1-20.3-37-24.3-36.9z" fill="#1f9aff"/><path d="m180.3 102.7c9 5.3 30.4-.3 36.1-13.8 2.8 18.7-11 22.7-18.1 23.2-12.7.9-18-9.4-18-9.4z" fill="#1790e2"/><path d="m191.9 63.2c-3.2 2.7-7.4 8.1-10.1 14.5-.6 1.4 1.5 2 2.8.7 4.5-4.4 7.6-9.1 9.4-13.8.5-1.1-.8-2.5-2.1-1.4z" fill="#3fafff"/><path d="m367.2 4c-3.7.3-19.8 21-18.5 36.8 1 11.9 11.5 20.7 23.4 19.6 11.9-1 20.7-11.5 19.6-23.4-1.3-15.8-20.9-33.3-24.5-33z" fill="#1f9aff"/><path d="m354.8 48.5c8.7 4.4 28.3-2 32.9-14.8 3.6 17.3-9 21.7-15.6 22.6-11.8 1.6-17.3-7.8-17.3-7.8z" fill="#1790e2"/><path d="m363.4 11.2c-2.9 2.7-6.5 7.9-8.6 14-.5 1.4 1.5 1.8 2.6.5 3.9-4.3 6.5-8.8 8-13.4.5-1-.8-2.2-2-1.1z" fill="#3fafff"/></svg>

<!--?xml version="1.0" encoding="utf-8"?-->
<!-- Generator: Adobe Illustrator 22.1.0, SVG Export Plug-In . SVG Version: 6.00 Build 0)  -->
<svg version="1.1" id="_x34_" xmlns="http://www.w3.org/2000/svg" xmlns:xlink="http://www.w3.org/1999/xlink" x="0px" y="0px" viewBox="0 0 800 798.7" style="enable-background:new 0 0 800 798.7;" xml:space="preserve">
<style type="text/css">
	.st0{fill:#1F9AFF;}
	.st1{fill:#1790E2;}
	.st2{fill:#3FAFFF;}
</style>
<g>
	<path class="st0" d="M496.5,15.7c-4,0.2-22.3,22.2-21.3,39.5c0.8,13,11.9,22.9,24.9,22.2c13-0.8,22.9-11.9,22.2-24.9
		C521.2,35.2,500.5,15.5,496.5,15.7z"></path>
	<path class="st1" d="M481.6,63.8c9.3,5.1,30.9-1.2,36.3-15c3.4,18.9-10.5,23.4-17.7,24.1C487.2,74.2,481.6,63.8,481.6,63.8z"></path>
	<path class="st2" d="M492.2,23.4c-3.2,2.9-7.3,8.4-9.8,15c-0.6,1.5,1.6,2,2.9,0.6c4.4-4.6,7.4-9.4,9.2-14.3
		C494.8,23.6,493.5,22.3,492.2,23.4z"></path>
	<path class="st0" d="M645.6,101.7c-4.5-0.6-29.5,20.4-31.9,39.9c-1.8,14.7,8.7,28.1,23.4,29.9c14.7,1.8,28.1-8.7,29.9-23.4
		C669.3,128.6,650.1,102.3,645.6,101.7z"></path>
	<path class="st1" d="M619.1,152.6c9.4,7.6,34.9,4.9,43.7-9.5c-0.1,21.9-16.5,24.1-24.8,23.4C623.3,165.4,619.1,152.6,619.1,152.6z"></path>
	<path class="st2" d="M639.2,109.5c-4.2,2.6-9.9,7.9-14.1,14.8c-0.9,1.5,1.3,2.5,3.1,1.3c5.9-4.2,10.2-9.1,13.2-14.1
		C642.1,110.3,640.9,108.4,639.2,109.5z"></path>
	<path class="st0" d="M747.4,225.1c-3.8-0.4-24.7,17.6-26.5,34.2c-1.3,12.5,7.7,23.7,20.2,25c12.5,1.3,23.7-7.7,25-20.2
		C767.9,247.6,751.3,225.5,747.4,225.1z"></path>
	<path class="st1" d="M725.6,268.5c8,6.3,29.6,3.7,36.9-8.6c0.2,18.6-13.7,20.6-20.7,20.1C729.4,279.3,725.6,268.5,725.6,268.5z"></path>
	<path class="st2" d="M742.1,231.8c-3.5,2.2-8.3,6.8-11.7,12.7c-0.8,1.3,1.2,2.1,2.6,1.1c4.9-3.6,8.6-7.8,11-12.1
		C744.6,232.4,743.5,230.9,742.1,231.8z"></path>
	<path class="st0" d="M769,370.4c-4.7,0-27.6,24.1-27.8,44.3c-0.1,15.1,12,27.5,27.2,27.7c15.1,0.1,27.5-12,27.7-27.2
		C796.2,395,773.6,370.5,769,370.4z"></path>
	<path class="st1" d="M747.9,425.1c10.4,6.6,36,1,43.3-14.7c2.4,22.3-14,26.3-22.5,26.6C753.7,437.6,747.9,425.1,747.9,425.1z"></path>
	<path class="st2" d="M763.4,379c-3.9,3.1-9.2,9.2-12.6,16.7c-0.8,1.7,1.7,2.4,3.3,1c5.5-5,9.4-10.4,11.8-15.9
		C766.4,379.5,765,377.8,763.4,379z"></path>
	<path class="st0" d="M737.3,524.1c-4.7-0.1-27.9,23.7-28.4,43.9c-0.3,15.1,11.7,27.7,26.8,28c15.1,0.3,27.7-11.7,28-26.8
		C764.2,549,741.9,524.2,737.3,524.1z"></path>
	<path class="st1" d="M715.5,578.6c10.3,6.8,36,1.4,43.5-14.1c2.1,22.3-14.3,26.1-22.8,26.3C721.2,591.1,715.5,578.6,715.5,578.6z"></path>
	<path class="st2" d="M731.6,532.7c-4,3-9.3,9.1-12.8,16.5c-0.8,1.7,1.6,2.5,3.3,1c5.5-4.9,9.5-10.2,12-15.7
		C734.6,533.2,733.2,531.5,731.6,532.7z"></path>
	<path class="st0" d="M637.7,669.7c-3.4,0.3-18.1,19.4-16.8,33.9c1,10.9,10.7,18.9,21.6,17.9c10.9-1,18.9-10.7,17.9-21.6
		C659.1,685.4,641,669.4,637.7,669.7z"></path>
	<path class="st1" d="M626.5,710.6c8,4,26-1.9,30.1-13.7c3.4,15.9-8.1,20-14.2,20.8C631.6,719.2,626.5,710.6,626.5,710.6z"></path>
	<path class="st2" d="M634.3,676.3c-2.6,2.5-5.9,7.3-7.8,12.9c-0.4,1.3,1.4,1.6,2.4,0.5c3.6-4,6-8.2,7.3-12.3
		C636.5,676.4,635.3,675.3,634.3,676.3z"></path>
	<path class="st0" d="M484.4,722.3c-4.7,0.1-27.2,24.9-26.9,45.3c0.2,15.3,12.8,27.4,28.1,27.2c15.3-0.2,27.4-12.8,27.2-28.1
		C512.4,746.4,489.1,722.2,484.4,722.3z"></path>
	<path class="st1" d="M464.5,777.9c10.6,6.4,36.3,0.1,43.3-15.8c3,22.4-13.4,26.9-22,27.4C470.6,790.4,464.5,777.9,464.5,777.9z"></path>
	<path class="st2" d="M478.9,731.1c-3.9,3.2-9,9.5-12.3,17.1c-0.7,1.7,1.7,2.4,3.3,0.9c5.4-5.1,9.2-10.7,11.5-16.3
		C482,731.5,480.5,729.8,478.9,731.1z"></path>
	<path class="st0" d="M303.7,722.6c-3.6,0.2-20.2,19.9-19.4,35.5c0.6,11.7,10.6,20.7,22.3,20.1c11.7-0.6,20.7-10.6,20.1-22.3
		C325.9,740.3,307.3,722.4,303.7,722.6z"></path>
	<path class="st1" d="M290.1,765.8c8.3,4.6,27.8-0.9,32.7-13.4c2.9,17.1-9.5,21-16.1,21.6C295.1,775.2,290.1,765.8,290.1,765.8z"></path>
	<path class="st2" d="M299.8,729.5c-2.9,2.6-6.6,7.5-8.9,13.5c-0.5,1.3,1.4,1.8,2.6,0.6c4-4.1,6.7-8.4,8.3-12.8
		C302.2,729.7,301,728.5,299.8,729.5z"></path>
	<path class="st0" d="M152.1,638.5c-3.8,0.3-20.8,21.8-19.5,38.3c1,12.4,11.9,21.7,24.4,20.6c12.4-1,21.7-11.9,20.6-24.3
		C176.3,656.6,156,638.2,152.1,638.5z"></path>
	<path class="st1" d="M139,684.9c9,4.7,29.6-1.9,34.4-15.3c3.7,18.1-9.5,22.6-16.4,23.5C144.7,694.7,139,684.9,139,684.9z"></path>
	<path class="st2" d="M148.2,646c-3,2.8-6.8,8.2-9.1,14.6c-0.5,1.4,1.5,1.9,2.8,0.6c4.1-4.5,6.9-9.2,8.5-13.9
		C150.7,646.2,149.4,644.9,148.2,646z"></path>
	<path class="st0" d="M49.2,498.5c-4.7-0.2-28.3,23.5-28.9,43.7c-0.5,15.2,11.4,27.9,26.6,28.4c15.2,0.5,27.9-11.4,28.4-26.6
		C75.9,523.8,53.9,498.7,49.2,498.5z"></path>
	<path class="st1" d="M26.8,552.9c10.3,6.9,36.1,1.8,43.8-13.7c1.9,22.4-14.6,26.1-23.2,26.2C32.3,565.6,26.8,552.9,26.8,552.9z"></path>
	<path class="st2" d="M43.4,507c-4,3-9.4,9-13,16.4c-0.8,1.7,1.6,2.5,3.3,1.1c5.6-4.8,9.6-10.2,12.2-15.7
		C46.4,507.6,45,505.8,43.4,507z"></path>
	<path class="st0" d="M23.7,331.3c-3.6,0.2-20.4,19.9-19.7,35.6c0.5,11.8,10.5,20.9,22.3,20.3c11.8-0.5,20.8-10.5,20.3-22.3
		C45.9,349.2,27.3,331.2,23.7,331.3z"></path>
	<path class="st1" d="M9.7,374.7c8.4,4.7,28-0.8,33-13.3c2.8,17.2-9.7,21-16.3,21.6C14.7,384.2,9.7,374.7,9.7,374.7z"></path>
	<path class="st2" d="M19.7,338.3c-2.9,2.6-6.7,7.5-9.1,13.5c-0.5,1.3,1.4,1.8,2.6,0.6c4.1-4.1,6.8-8.5,8.5-12.8
		C22.1,338.5,20.9,337.2,19.7,338.3z"></path>
	<path class="st0" d="M81.2,164.5c-4.4,0.5-23.5,26-21.4,45.1c1.6,14.4,14.5,24.8,28.9,23.2c14.4-1.6,24.8-14.5,23.2-28.9
		C109.8,184.7,85.6,164,81.2,164.5z"></path>
	<path class="st1" d="M67.4,218.8c10.6,5.1,34.3-3.1,39.5-18.8c4.8,20.9-10.3,26.6-18.3,27.8C74.3,230,67.4,218.8,67.4,218.8z"></path>
	<path class="st2" d="M76.8,173.3c-3.4,3.4-7.6,9.8-10.1,17.3c-0.5,1.7,1.8,2.1,3.2,0.6c4.6-5.3,7.7-10.9,9.4-16.4
		C79.8,173.4,78.2,172,76.8,173.3z"></path>
	<path class="st0" d="M196.3,55.8c-3.9,0.1-22.6,21.2-22.1,38.3c0.4,12.8,11.1,22.9,23.9,22.5c12.8-0.4,22.9-11.1,22.5-23.9
		C220.1,75.6,200.3,55.7,196.3,55.8z"></path>
	<path class="st1" d="M180.3,102.7c9,5.3,30.4-0.3,36.1-13.8c2.8,18.7-11,22.7-18.1,23.2C185.6,113,180.3,102.7,180.3,102.7z"></path>
	<path class="st2" d="M191.9,63.2c-3.2,2.7-7.4,8.1-10.1,14.5c-0.6,1.4,1.5,2,2.8,0.7c4.5-4.4,7.6-9.1,9.4-13.8
		C194.5,63.5,193.2,62.1,191.9,63.2z"></path>
	<path class="st0" d="M367.2,4c-3.7,0.3-19.8,21-18.5,36.8c1,11.9,11.5,20.7,23.4,19.6c11.9-1,20.7-11.5,19.6-23.4
		C390.4,21.2,370.8,3.7,367.2,4z"></path>
	<path class="st1" d="M354.8,48.5c8.7,4.4,28.3-2,32.9-14.8c3.6,17.3-9,21.7-15.6,22.6C360.3,57.9,354.8,48.5,354.8,48.5z"></path>
	<path class="st2" d="M363.4,11.2c-2.9,2.7-6.5,7.9-8.6,14c-0.5,1.4,1.5,1.8,2.6,0.5c3.9-4.3,6.5-8.8,8-13.4
		C365.9,11.3,364.6,10.1,363.4,11.2z"></path>
</g>
</svg>
